X: 10753
T: COTILLION No. 4. tune 5
C:
%R: jig
B: Elias Howe "The Musician's Companion" Part 1 1842 p.75 #3
S: http://imslp.org/wiki/The_Musician's_Companion_(Howe,_Elias)
Z: 2015 John Chambers <jc:trillian.mit.edu>
M: 6/8
L: 1/8
K: C
% - - - - - - - - - - - - - - - - - - - - - - - - -
G |\
c2G e2d | cBA G2F | EFG Adc | BcA GAB |\
c2G e2d | cBA G2F | EGc AdB | c2e c2 H|]
(c/d/) |\
e2d f2e | d2c e2d | c2B Adc | (Bc)A Gcd |\
e2d f2e | d2c e2d | c2B AdB |[1 ccc c2c :|[1 cEF GA"^D.C."B |]
% - - - - - - - - - - Dance description - - - - - - - - - -
%%begintext align
%% First 2 forward and back,
%% cross over,
%% chassa de chassa,
%% cross back,
%% balance 4 and turn,
%% others perform the same.
%%endtext
%- - - - - - - - - - - - - - - - - - - - - - - - -
%%sep 1 1 300
